; generated by PrusaSlicer 2.4.2+win64 on 2022-05-22 at 12:10:39 UTC


;
;

;
;
; TODO: check the size of the extruder and the y-bar clearance. Optimize & test supports.

; external perimeters extrusion width = 0.63mm
; perimeters extrusion width = 0.66mm
; infill extrusion width = 0.66mm
; solid infill extrusion width = 0.66mm
; top infill extrusion width = 0.66mm
; first layer extrusion width = 0.84mm

; external perimeters extrusion width = 0.63mm
; perimeters extrusion width = 0.66mm
; infill extrusion width = 0.66mm
; solid infill extrusion width = 0.66mm
; top infill extrusion width = 0.66mm
; first layer extrusion width = 0.84mm

M107
M190 S55 ; set bed temperature and wait for it to be reached
M104 S215 ; set temperature
;TYPE:Custom
; M190 S0
; M109 S0 ; uncomment to remove set&wait temp gcode added automatically after this start gcode
print_start EXTRUDER=215 BED=55
M109 S215 ; set temperature and wait for it to be reached
G21 ; set units to millimeters
G90 ; use absolute coordinates
M83 ; use relative distances for extrusion
M107
;LAYER_CHANGE
;Z:0.3
;HEIGHT:0.3
;BEFORE_LAYER_CHANGE
;0.3
G92 E0

G1 Z.3 F18000
;AFTER_LAYER_CHANGE
;0.3
G1 E-.75 F3000
G1 Z2.3 F18000
G1 X109.337 Y111.018
G1 Z.3
G1 E.75 F1800
M204 S1000
;TYPE:Skirt/Brim
;WIDTH:0.84
G1 X113.609 Y106.81 E.58006
G1 X114.736 Y106.018 E.13326
G1 X116.523 Y105.394 E.18306
G1 X117.497 Y105.307 E.09461
G1 X132.503 Y105.307 E1.45172
G1 X133.252 Y105.359 E.07262
G1 X134.936 Y105.853 E.16973
G1 X135.419 Y106.105 E.05269
G1 X136.441 Y106.856 E.12273
G1 X141.783 Y112.121 E.72562
G1 X142.549 Y113.068 E.11779
G1 X143.317 Y114.816 E.18467
G1 X143.503 Y116.187 E.13387
G1 X143.594 Y125.539 E.90472
G1 X143.594 Y141.179 E1.51303
G1 X143.198 Y143.195 E.19876
G1 X142.068 Y144.911 E.19876
G1 X140.373 Y146.072 E.19876
G1 X138.267 Y146.506 E.20797
G1 X111.733 Y146.506 E2.56689
G1 X109.717 Y146.11 E.19876
G1 X108.001 Y144.98 E.19876
G1 X106.84 Y143.285 E.19876
G1 X106.406 Y141.179 E.20797
G1 X106.406 Y125.539 E1.51303
G1 X106.497 Y116.187 E.90473
G1 X106.683 Y114.816 E.13387
G1 X107.451 Y113.069 E.18464
G1 X108.217 Y112.121 E.1178
G1 X109.284 Y111.07 E.1449
M204 S3000
G1 X109.828 Y111.623 F18000
M204 S1000
G1 F1800
G1 X114.133 Y107.383 E.58452
G1 X115.118 Y106.693 E.11633
G1 X116.323 Y106.223 E.12519
G1 X117.497 Y106.082 E.11433
G1 X133.143 Y106.127 E1.51362
G1 X133.677 Y106.223 E.05244
G1 X134.882 Y106.693 E.12512
G1 X135.918 Y107.429 E.12295
G1 X141.239 Y112.674 E.72276
G1 X141.906 Y113.503 E.10298
G1 X142.563 Y114.996 E.15778
G1 X142.728 Y116.195 E.11707
G1 X142.818 Y125.539 E.90399
G1 X142.818 Y141.179 E1.51303
G1 X142.423 Y143.035 E.18358
G1 X141.305 Y144.568 E.18358
G1 X139.658 Y145.512 E.18358
G1 X138.267 Y145.73 E.13625
G1 X111.733 Y145.73 E2.56689
G1 X109.877 Y145.335 E.18358
G1 X108.344 Y144.217 E.18358
G1 X107.4 Y142.57 E.18358
G1 X107.182 Y141.179 E.13625
G1 X107.182 Y125.539 E1.51303
G1 X107.272 Y116.195 E.904
G1 X107.438 Y114.996 E.11708
G1 X108.094 Y113.503 E.15776
G1 X108.762 Y112.674 E.10299
G1 X109.775 Y111.676 E.13758
M204 S3000
G1 X110.319 Y112.228 F18000
M204 S1000
G1 F1800
G1 X114.656 Y107.955 E.58896
G1 X115.499 Y107.368 E.0994
G1 X116.5 Y106.979 E.10385
G1 X117.497 Y106.858 E.09718
G1 X133.034 Y106.895 E1.50307
G1 X133.501 Y106.979 E.04584
G1 X134.5 Y107.368 E.10379
G1 X135.394 Y108.001 E.10601
G1 X140.694 Y113.226 E.7199
G1 X141.264 Y113.937 E.08816
G1 X141.808 Y115.176 E.13089
G1 X141.952 Y116.202 E.10027
G1 X142.042 Y125.502 E.89972
G1 X142.043 Y141.179 E1.51657
G1 X141.648 Y142.86 E.16701
G1 X140.546 Y144.189 E.16701
G1 X138.267 Y144.955 E.23261
G1 X111.733 Y144.955 E2.56689
G1 X110.052 Y144.56 E.16701
G1 X108.723 Y143.458 E.16701
G1 X107.957 Y141.179 E.23261
G1 X107.957 Y125.539 E1.51303
G1 X108.048 Y116.202 E.90327
G1 X108.192 Y115.176 E.10028
G1 X108.737 Y113.937 E.13087
G1 X109.306 Y113.226 E.08817
G1 X110.266 Y112.281 E.13027
M204 S3000
G1 E-.75 F3000
G1 Z2.3 F18000
G1 X120.314 Y115.642
G1 Z.3
G1 E.75 F1800
M204 S1000
;TYPE:Perimeter
G1 X120.61 Y114.86 E.0809
G1 X120.777 Y114.015 E.08334
G1 X120.793 Y113.478 E.05196
G1 X122.978 Y113.476 E.21138
G1 X122.886 Y114.208 E.07131
G1 X122.884 Y114.852 E.06236
G1 X122.952 Y115.493 E.06235
G1 X122.984 Y115.642 E.01475
G1 X120.389 Y115.642 E.25101
M204 S3000
G1 X118.846 Y116.418 F18000
M204 S1000
G1 F1800
G1 X119.173 Y116.053 E.04738
G1 X119.599 Y115.342 E.08016
G1 X119.862 Y114.646 E.07198
G1 X120.003 Y113.928 E.07084
G1 X120.025 Y113.199 E.07057
G1 X119.957 Y112.703 E.04839
G1 X124.001 Y112.7 E.39117
G1 X123.847 Y113.144 E.04544
G1 X123.723 Y113.695 E.0546
G1 X123.661 Y114.252 E.05427
G1 X123.659 Y114.812 E.0542
G1 X123.718 Y115.37 E.0542
G1 X123.838 Y115.917 E.05424
G1 X124.005 Y116.418 E.05105
G1 X118.921 Y116.418 E.49187
M204 S3000
G1 E-.75 F3000
G1 Z2.3 F18000
G1 X113.119 Y117.072
G1 Z.3
G1 E.75 F1800
M204 S1000
G1 X115.732 Y117.064 E.25274
G1 X116.288 Y117.007 E.05407
G1 X116.876 Y116.845 E.05908
G1 X117.509 Y116.54 E.06794
G1 X118.076 Y116.114 E.06858
G1 X118.546 Y115.591 E.06808
G1 X118.897 Y115.003 E.06625
G1 X119.113 Y114.432 E.05902
G1 X119.23 Y113.841 E.05835
G1 X119.248 Y113.24 E.05814
G1 X119.167 Y112.648 E.05782
G1 X119.002 Y112.107 E.05465
G1 X118.916 Y111.928 E.01926
G1 X125.368 Y111.911 E.62418
G1 X125.3 Y111.972 E.00885
G1 X124.978 Y112.44 E.0549
G1 X124.754 Y112.895 E.04911
G1 X124.594 Y113.356 E.04721
G1 X124.49 Y113.823 E.04629
G1 X124.437 Y114.297 E.04609
G1 X124.435 Y114.773 E.04605
G1 X124.485 Y115.246 E.04605
G1 X124.587 Y115.711 E.04607
G1 X124.738 Y116.164 E.04623
G1 X124.942 Y116.604 E.04689
G1 X125.206 Y117.03 E.04844
G1 X125.358 Y117.213 E.023
G1 X124.77 Y117.193 E.05692
G1 X113.119 Y117.193 E1.12713
G1 X113.119 Y117.147 E.00445
M204 S3000
G1 E-.75 F3000
G1 Z2.3 F18000
G1 X132.615 Y116.574
G1 Z.3
G1 E.75 F1800
M204 S1000
G1 X133.36 Y116.919 E.07934
G1 X133.972 Y117.043 E.06041
G1 X134.295 Y117.062 E.03131
G1 X136.881 Y117.069 E.25023
G1 X136.881 Y117.193 E.01198
G1 X132.71 Y117.194 E.40352
G1 X132.255 Y117.209 E.04404
G1 X132.479 Y116.903 E.03663
G1 X132.587 Y116.643 E.02721
M204 S3000
G1 X132.251 Y115.246 F18000
M204 S1000
;TYPE:External perimeter
G1 F1800
G1 X132.308 Y115.228 E.00585
G1 X132.491 Y115.439 E.02695
G1 X132.897 Y115.752 E.04964
G1 X132.957 Y115.878 E.01352
G1 X133.603 Y116.177 E.0688
G1 X134.072 Y116.272 E.04637
G1 X134.319 Y116.287 E.02393
G1 X137.657 Y116.298 E.32287
G1 X137.657 Y117.969 E.16164
G1 X132.723 Y117.969 E.4773
G1 X131.698 Y118.003 E.09923
G1 X131.206 Y118.069 E.04799
G1 X126.746 Y118.069 E.43144
G1 X126.275 Y118.067 E.04559
G1 X125.782 Y118.002 E.04807
G1 X124.758 Y117.969 E.0992
G1 X112.343 Y117.969 E1.20094
G1 X112.343 Y116.299 E.16155
G1 X115.69 Y116.289 E.3238
G1 X116.144 Y116.242 E.04411
G1 X116.603 Y116.116 E.04606
G1 X117.104 Y115.875 E.05377
G1 X117.549 Y115.54 E.05388
G1 X117.919 Y115.128 E.05352
G1 X118.196 Y114.664 E.05233
G1 X118.365 Y114.219 E.04606
G1 X118.457 Y113.754 E.04586
G1 X118.47 Y113.281 E.0457
G1 X118.407 Y112.815 E.0456
G1 X118.277 Y112.39 E.04292
G1 X118.091 Y112.002 E.04162
G1 X117.596 Y111.153 E.09507
G1 X125.125 Y111.148 E.72841
G1 X125.631 Y111.118 E.04895
G1 X126.094 Y111.053 E.04523
G1 X126.851 Y111.056 E.07329
G1 X126.869 Y111.308 E.02437
G1 X126.85 Y111.388 E.00798
G1 X126.615 Y111.821 E.04766
G1 X125.889 Y112.485 E.09519
G1 X125.649 Y112.833 E.04091
G1 X125.471 Y113.194 E.03894
G1 X125.342 Y113.569 E.03829
G1 X125.256 Y113.952 E.03798
G1 X125.212 Y114.341 E.03791
G1 X125.211 Y114.733 E.03789
G1 X125.252 Y115.122 E.03789
G1 X125.335 Y115.505 E.0379
G1 X125.46 Y115.877 E.03796
G1 X125.626 Y116.235 E.03819
G1 X125.837 Y116.575 E.03871
G1 X126.098 Y116.89 E.03956
G1 X126.405 Y117.154 E.03912
G1 X127.006 Y117.555 E.06988
G1 X127.34 Y117.732 E.03666
G1 X127.694 Y117.874 E.03684
G1 X128.061 Y117.976 E.03684
G1 X128.437 Y118.037 E.03684
G1 X128.817 Y118.058 E.03684
G1 X129.197 Y118.038 E.03684
G1 X129.573 Y117.976 E.03684
G1 X129.94 Y117.874 E.03684
G1 X130.293 Y117.733 E.03684
G1 X130.629 Y117.555 E.03671
G1 X131.233 Y117.15 E.07033
G1 X131.541 Y116.871 E.04021
G1 X131.798 Y116.52 E.04213
G1 X132.084 Y115.833 E.07199
G1 X132.203 Y115.477 E.03626
G1 X132.236 Y115.319 E.0156
M204 S3000
G1 X132.306 Y115.27 F18000
G1 X131.758 Y112.636
M204 S1000
G1 F1800
G1 X131.618 Y112.431 E.024
G1 X131.404 Y112.173 E.03243
G1 X131.019 Y111.821 E.05044
G1 X130.784 Y111.388 E.04766
G1 X130.765 Y111.308 E.00799
G1 X130.783 Y111.053 E.02467
G1 X131.531 Y111.053 E.0723
G1 X131.985 Y111.118 E.04444
G1 X132.414 Y111.152 E.04159
G1 X132.184 Y111.598 E.04854
G1 X132.109 Y111.858 E.02617
G1 X131.869 Y112.3 E.04866
G1 X131.781 Y112.565 E.02701
M204 S3000
G1 X131.695 Y112.396 F18000
G1 E-.75 F3000
G1 Z2.3 F18000
G1 X131.536 Y117.463
G1 Z.3
G1 E.75 F1800
M204 S1000
;TYPE:Gap fill
;WIDTH:0.205339
G1 X131.416 Y117.578 E.00292
M204 S3000
M204 S1000
;WIDTH:0.205339
G1 X131.287 Y117.628 E.00244
M204 S3000
G1 E-.75 F3000
G1 Z2.3 F18000
G1 X121.051 Y113.931
G1 Z.3
G1 E.75 F1800
M204 S1000
;TYPE:Solid infill
;WIDTH:0.949787
G1 X122.49 Y115.371 E.22483
M204 S3000
G1 E-.75 F3000
G1 Z2.3 F18000
G1 X123.28 Y135.595
G1 Z.3
G1 E.75 F1800
M204 S1000
;TYPE:External perimeter
;WIDTH:0.84
G1 X125.421 Y135.595 E.20715
G1 X126.775 Y135.479 E.13146
G1 X126.816 Y136.405 E.08974
G1 X126.821 Y138.135 E.16737
G1 X123.174 Y138.134 E.3528
G1 X123.191 Y137.12 E.09803
G1 X123.223 Y136.716 E.03927
G1 X123.28 Y136.357 E.03515
G1 X123.28 Y135.67 E.06643
M204 S3000
G1 X123.289 Y135.095 F18000
G1 E-.75 F3000
G1 Z2.3 F18000
G1 X119.723 Y132.477
G1 Z.3
G1 E.75 F1800
M204 S1000
;TYPE:Perimeter
G1 X120.007 Y132.754 E.0384
G1 X120.01 Y133.661 E.08782
G1 X119.91 Y133.545 E.01483
G1 X119.723 Y133.382 E.02402
G1 X119.723 Y132.552 E.08027
M204 S3000
G1 X118.919 Y131.033 F18000
M204 S1000
;TYPE:External perimeter
G1 F1800
G1 X118.947 Y132.263 E.11899
G1 X118.948 Y133.748 E.14371
G1 X119.358 Y134.093 E.05187
G1 X119.723 Y134.514 E.05389
G1 X119.881 Y134.745 E.02708
G1 X120.079 Y135.116 E.04063
G1 X120.172 Y135.368 E.02605
G1 X120.466 Y135.485 E.0306
G1 X120.712 Y135.63 E.02767
G1 X120.918 Y135.817 E.0269
G1 X121.218 Y136.165 E.04445
G1 X121.339 Y136.476 E.03225
G1 X121.4 Y136.79 E.03095
G1 X121.376 Y137.118 E.03184
G1 X121.287 Y137.418 E.03028
G1 X121.187 Y137.619 E.02169
G1 X121.006 Y137.868 E.02981
G1 X120.772 Y138.081 E.0306
G1 X120.501 Y138.241 E.03042
G1 X120.169 Y138.349 E.03382
G1 X120.079 Y138.555 E.02174
G1 X119.86 Y138.93 E.04199
G1 X119.595 Y139.278 E.04237
G1 X119.277 Y139.592 E.04316
G1 X118.902 Y139.858 E.04452
G1 X118.656 Y139.962 E.02584
G1 X118.334 Y140.145 E.03584
G1 X117.945 Y140.312 E.04097
G1 X117.41 Y140.462 E.05371
G1 X117.131 Y140.507 E.02731
G1 X116.712 Y140.535 E.04065
G1 X116.159 Y140.497 E.0536
G1 X115.882 Y140.449 E.02726
G1 X115.481 Y140.337 E.04028
G1 X115.09 Y140.18 E.04079
G1 X114.644 Y139.931 E.04938
G1 X114.391 Y139.821 E.02672
G1 X114.02 Y139.541 E.04492
G1 X113.711 Y139.22 E.04307
G1 X113.455 Y138.866 E.04234
G1 X113.244 Y138.483 E.04223
G1 X113.084 Y138.066 E.0432
G1 X112.99 Y137.633 E.04292
G1 X112.943 Y136.826 E.07819
G1 X112.988 Y136.02 E.07805
G1 X113.078 Y135.585 E.04303
G1 X113.234 Y135.169 E.04295
G1 X113.443 Y134.785 E.04227
G1 X113.69 Y134.436 E.04137
G1 X113.875 Y134.221 E.02747
G1 X114.183 Y133.923 E.04148
G1 X114.408 Y133.754 E.0272
G1 X114.408 Y131.003 E.26609
G1 X115.149 Y130.786 E.0747
G1 X115.655 Y130.679 E.05003
G1 X116.171 Y130.616 E.05027
G1 X116.666 Y130.595 E.04791
G1 X117.185 Y130.616 E.05032
G1 X117.705 Y130.681 E.05063
G1 X118.279 Y130.811 E.05702
G1 X118.848 Y131.008 E.05824
M204 S3000
G1 X119.418 Y131.072 F18000
G1 E-.75 F3000
G1 Z2.3 F18000
G1 X117 Y128.28
G1 Z.3
G1 E.75 F1800
M204 S1000
;TYPE:Perimeter
G1 X116.663 Y128.266 E.0326
G1 X115.979 Y128.295 E.06622
G1 X115.272 Y128.382 E.06893
G1 X114.579 Y128.528 E.0685
G1 X114.579 Y127.834 E.06712
G1 X117.093 Y127.832 E.24319
G1 X117.015 Y128.206 E.03696
M204 S3000
G1 X117.687 Y129.115 F18000
M204 S1000
G1 F1800
G1 X117.313 Y129.068 E.03645
G1 X116.664 Y129.043 E.06284
G1 X116.043 Y129.068 E.06011
G1 X115.4 Y129.148 E.06271
G1 X114.77 Y129.28 E.06224
G1 X113.803 Y129.564 E.09747
G1 X113.804 Y127.059 E.24236
G1 X118.18 Y127.056 E.42333
G1 X117.996 Y127.486 E.04529
G1 X117.87 Y127.908 E.04261
G1 X117.717 Y128.641 E.0724
G1 X117.692 Y129.04 E.03873
M204 S3000
G1 X118.531 Y130.078 F18000
M204 S1000
G1 F1800
G1 X117.839 Y129.916 E.06875
G1 X117.249 Y129.842 E.05753
G1 X116.665 Y129.819 E.05658
G1 X116.107 Y129.842 E.05401
G1 X115.527 Y129.914 E.05649
G1 X114.96 Y130.033 E.05614
G1 X113.632 Y130.423 E.13381
G1 X113.632 Y133.376 E.28571
G1 X113.31 Y133.688 E.04342
G1 X113.027 Y134.03 E.04294
G1 X113.028 Y126.284 E.74939
G1 X119.614 Y126.279 E.63706
G1 X119.519 Y126.374 E.01301
G1 X119.188 Y126.821 E.05377
G1 X118.93 Y127.273 E.05035
G1 X118.727 Y127.751 E.05023
G1 X118.622 Y128.099 E.03519
G1 X118.488 Y128.745 E.06382
G1 X118.454 Y129.277 E.05158
G1 X118.47 Y129.645 E.0356
G1 X118.521 Y130.004 E.03506
M204 S3000
G1 E-.75 F3000
G1 Z2.3 F18000
G1 X120.782 Y132.374
G1 Z.3
G1 E.75 F1800
M204 S1000
;TYPE:External perimeter
G1 X120.554 Y132.203 E.02755
G1 X120.241 Y131.9 E.04215
G1 X119.967 Y131.562 E.04203
G1 X119.734 Y131.192 E.04237
G1 X119.451 Y130.568 E.06625
G1 X119.324 Y130.143 E.04293
G1 X119.243 Y129.573 E.05564
G1 X119.231 Y129.285 E.02791
G1 X119.258 Y128.849 E.04225
G1 X119.375 Y128.29 E.05523
G1 X119.457 Y128.015 E.02778
G1 X119.627 Y127.618 E.04177
G1 X119.84 Y127.242 E.04182
G1 X120.105 Y126.885 E.04301
G1 X120.419 Y126.569 E.0431
G1 X120.792 Y126.3 E.04447
G1 X121.038 Y126.19 E.02611
G1 X121.485 Y125.938 E.04959
G1 X121.751 Y125.829 E.02783
G1 X122.285 Y125.672 E.05386
G1 X122.702 Y125.61 E.04077
G1 X122.98 Y125.594 E.02694
G1 X123.396 Y125.609 E.04025
G1 X123.812 Y125.671 E.0407
G1 X124.218 Y125.78 E.0407
G1 X124.612 Y125.935 E.04089
G1 X125.443 Y126.387 E.09156
G1 X125.687 Y126.573 E.02961
G1 X125.999 Y126.887 E.04286
G1 X126.261 Y127.241 E.04259
G1 X126.475 Y127.618 E.04198
G1 X126.645 Y128.015 E.04176
G1 X126.727 Y128.29 E.02776
G1 X126.844 Y128.849 E.05526
G1 X126.872 Y129.287 E.04241
G1 X126.85 Y129.718 E.04181
G1 X126.78 Y130.145 E.04181
G1 X126.662 Y130.561 E.04181
G1 X126.498 Y130.96 E.0418
G1 X126.289 Y131.339 E.0418
G1 X126.039 Y131.691 E.0418
G1 X125.752 Y132.014 E.0418
G1 X125.32 Y132.379 E.05469
G1 X125.316 Y133.874 E.14463
G1 X125.286 Y134.343 E.04543
G1 X125.176 Y135.063 E.07049
G1 X124.558 Y135.244 E.06229
G1 X124.059 Y135.349 E.04934
G1 X123.551 Y135.412 E.04947
G1 X123.041 Y135.433 E.04942
G1 X122.037 Y135.391 E.09723
G1 X120.926 Y135.063 E.11202
G1 X120.816 Y134.343 E.07044
G1 X120.786 Y133.874 E.04543
G1 X120.782 Y132.449 E.13787
M204 S3000
G1 X120.498 Y132.403 F18000
G1 E-.75 F3000
G1 Z2.3 F18000
G1 X127.947 Y133.025
G1 Z.3
G1 E.75 F1800
M204 S1000
;TYPE:Perimeter
G1 X128.264 Y132.576 E.05318
G1 X128.6 Y131.966 E.06732
G1 X128.725 Y131.661 E.03192
G1 X128.725 Y132.743 E.10462
G1 X128.526 Y132.967 E.02907
G1 X128.021 Y133.017 E.04905
M204 S3000
G1 E-.75 F3000
G1 Z2.3 F18000
G1 X135.421 Y128.528
G1 Z.3
G1 E.75 F1800
M204 S1000
G1 X134.728 Y128.382 E.0685
G1 X134.018 Y128.294 E.06921
G1 X133.307 Y128.266 E.06881
G1 X132.623 Y128.295 E.0662
G1 X131.916 Y128.382 E.06893
G1 X131.225 Y128.527 E.06834
G1 X129.193 Y129.124 E.20489
G1 X129.156 Y128.537 E.05698
G1 X129.009 Y127.835 E.06933
G1 X135.421 Y127.835 E.62023
G1 X135.421 Y128.453 E.05972
M204 S3000
G1 X136.029 Y129.515 F18000
M204 S1000
G1 F1800
G1 X135.23 Y129.28 E.08061
G1 X134.6 Y129.148 E.06224
G1 X133.955 Y129.068 E.06291
G1 X133.308 Y129.043 E.06263
G1 X132.687 Y129.068 E.0601
G1 X132.044 Y129.148 E.06271
G1 X131.414 Y129.28 E.06224
G1 X129.501 Y129.842 E.19293
G1 X129.501 Y133.06 E.3113
G1 X129.178 Y133.388 E.04445
G1 X128.739 Y134.016 E.07419
G1 X128.276 Y134.299 E.05249
G1 X128.253 Y133.774 E.0509
G1 X126.867 Y133.911 E.13476
G1 X126.869 Y133.091 E.07932
G1 X127.255 Y132.66 E.05593
G1 X127.606 Y132.164 E.05881
G1 X127.899 Y131.631 E.05882
G1 X128.13 Y131.069 E.05882
G1 X128.296 Y130.484 E.05882
G1 X128.395 Y129.884 E.05882
G1 X128.425 Y129.276 E.05882
